SharedPackages/Infrastructure/DesignResourcesKitIcons/Sources/DesignResourcesKitIcons/DesignSystemImages.xcassets/Color/24px/Fire-Color-24.imageset/Fire-Color-24.svg

<svg width="24" height="24" viewBox="0 0 24 24" fill="none" xmlns="http://www.w3.org/2000/svg">
<path d="M12 12.375C13.7778 13.9985 16 15.7573 16 17.4823C16 19.3426 14.6666 21 12 21C9.33334 21 8 19.3426 8 17.4823C8.00003 15.622 10.2222 13.9985 12 12.375Z" fill="#FFD885"/>
<path d="M10.2778 2.625C11.9806 3.72233 12.0899 5.71424 12.5739 7.46021C12.6558 7.75599 13.1479 8.96629 14.6239 8.96631C15.9359 8.96631 16.4279 8.09434 16.5919 7.698C16.7559 7.30174 16.8379 6.36669 16.9199 6.43762C17.0019 6.50896 20.364 9.44185 20.364 14.5149C20.364 17.5614 17.893 20.0995 14.5928 20.9902C15.3986 20.3123 15.8018 19.2999 15.8018 18.2211C15.8018 16.4469 13.6896 14.6379 11.9999 12.968C10.3102 14.6379 8.198 16.3077 8.198 18.2211C8.19801 19.2999 8.60105 20.3123 9.40686 20.9902C6.10672 20.0995 3.63574 17.5614 3.63574 14.5149C3.63575 9.44187 8.06377 8.17359 10.2778 2.625Z" fill="#F05F2B"/>
<path d="M19.739 14.5149C19.739 11.1891 18.2055 8.8354 17.2518 7.69312C17.2328 7.76006 17.2124 7.82466 17.1902 7.88416L17.1694 7.93701C17.0668 8.18512 16.8557 8.59813 16.4486 8.95227C16.0291 9.31724 15.433 9.59131 14.6239 9.59131C13.6914 9.5913 13.0401 9.20037 12.6198 8.75122C12.2411 8.34662 12.0558 7.9039 11.9844 7.6709L11.9716 7.6272C11.846 7.17427 11.7434 6.70004 11.6417 6.26453C11.5377 5.81881 11.4318 5.39972 11.2935 5.00708C11.1081 4.48087 10.8707 4.02036 10.5203 3.63867C9.38248 6.07986 7.83441 7.68902 6.60474 9.15064C5.24699 10.7645 4.26075 12.2054 4.26074 14.5149C4.26074 16.6551 5.6586 18.5868 7.81299 19.7063C7.6643 19.269 7.58539 18.8059 7.57434 18.3364L7.573 18.2211C7.573 17.0341 8.2252 15.9927 8.99011 15.0973C9.75145 14.2061 10.7544 13.3201 11.5605 12.5234L11.5839 12.5016C11.8284 12.2831 12.2034 12.2904 12.4392 12.5234L12.7537 12.8315C13.5025 13.5602 14.3448 14.3555 15.0137 15.1542C15.7689 16.0561 16.4268 17.0996 16.4268 18.2211L16.4254 18.3366C16.4144 18.806 16.3353 19.2691 16.1866 19.7063C18.3411 18.5868 19.739 16.6551 19.739 14.5149ZM20.989 14.5149C20.989 17.8767 18.3207 20.5692 14.9182 21.5483L14.7556 21.5936C14.4726 21.67 14.1746 21.5394 14.0388 21.2797C13.9031 21.0199 13.9661 20.7007 14.1904 20.512C14.8129 19.9883 15.155 19.1978 15.1758 18.3075L15.1768 18.2211C15.1768 17.5683 14.7785 16.8203 14.0553 15.9567C13.4603 15.2462 12.7292 14.5505 11.9983 13.8406C11.262 14.5473 10.5386 15.2091 9.94055 15.9092C9.22696 16.7445 8.823 17.4947 8.823 18.2211L8.82397 18.3075C8.84474 19.1978 9.18683 19.9883 9.8092 20.512C10.0335 20.7007 10.0965 21.0199 9.96082 21.2797C9.82506 21.5394 9.527 21.67 9.24402 21.5936C5.7644 20.6544 3.01074 17.93 3.01074 14.5149C3.01075 11.7514 4.23853 10.0216 5.64832 8.34595C7.05942 6.66868 8.63654 5.05188 9.69739 2.39331L9.71118 2.36133C9.78458 2.20357 9.92078 2.08297 10.0875 2.02967C10.2654 1.97282 10.4594 1.99849 10.6163 2.09961C11.6241 2.74905 12.1444 3.66056 12.4724 4.59168C12.6347 5.05242 12.7532 5.52726 12.859 5.98035C12.9672 6.44365 13.0597 6.87317 13.1761 7.29322L13.1882 7.33155C13.2257 7.4406 13.3298 7.68055 13.5325 7.8971C13.7477 8.12705 14.0804 8.3413 14.6239 8.34131C15.1268 8.34131 15.4327 8.17938 15.6282 8.00928C15.8361 7.82837 15.9531 7.60723 16.0144 7.45899L16.0239 7.43445C16.0715 7.3042 16.1189 7.06358 16.1722 6.77783C16.1962 6.64936 16.2237 6.50167 16.2522 6.39185C16.2636 6.34791 16.2891 6.25209 16.3373 6.1615C16.3533 6.13142 16.4255 5.99317 16.5859 5.89807C16.6833 5.84041 16.8218 5.79414 16.9846 5.81311C17.1227 5.82922 17.2284 5.88653 17.3002 5.94165L17.3289 5.96497L17.3302 5.96607L17.3909 6.02039C17.878 6.46513 20.989 9.49617 20.989 14.5149Z" fill="#9E2B08"/>
</svg>

<svg fill="none" viewBox="0 0 24 24" xmlns="http://www.w3.org/2000/svg">
  <path fill="#FC3" d="M12 12.375c1.778 1.623 4 3.382 4 5.107C16 19.342 14.667 21 12 21s-4-1.657-4-3.518c0-1.86 2.222-3.483 4-5.107Z"/>
  <path fill="url(#Fire-Color-24_svg__a)" d="M10.278 2.625c1.703 1.097 1.812 3.09 2.296 4.835.082.296.574 1.506 2.05 1.506 1.312 0 1.804-.872 1.968-1.268.164-.396.246-1.331.328-1.26.082.071 3.444 3.004 3.444 8.077 0 3.046-2.471 5.584-5.771 6.475.806-.678 1.209-1.69 1.209-2.769 0-1.774-2.112-3.583-3.802-5.253-1.69 1.67-3.802 3.34-3.802 5.253 0 1.079.403 2.091 1.209 2.77-3.3-.892-5.771-3.43-5.771-6.476 0-5.073 4.428-6.341 6.642-11.89Z"/>
  <path fill="url(#Fire-Color-24_svg__b)" d="M19.739 14.515c0-3.326-1.534-5.68-2.487-6.822a2.52 2.52 0 0 1-.062.191l-.02.053a2.732 2.732 0 0 1-.721 1.015c-.42.365-1.016.64-1.825.64-.933 0-1.584-.392-2.004-.84a2.882 2.882 0 0 1-.636-1.081l-.012-.044c-.126-.453-.229-.927-.33-1.362a12.02 12.02 0 0 0-.348-1.258c-.186-.526-.423-.987-.774-1.368-1.138 2.44-2.686 4.05-3.915 5.512-1.358 1.614-2.344 3.054-2.344 5.364 0 2.14 1.398 4.072 3.552 5.191a4.593 4.593 0 0 1-.239-1.37l-.001-.115c0-1.187.652-2.228 1.417-3.124.761-.89 1.764-1.777 2.57-2.574l.024-.021a.625.625 0 0 1 .855.021l.315.309c.748.728 1.59 1.523 2.26 2.322.755.902 1.413 1.946 1.413 3.067l-.002.116a4.59 4.59 0 0 1-.238 1.37c2.154-1.12 3.552-3.052 3.552-5.192Zm1.25 0c0 3.362-2.668 6.054-6.07 7.033l-.163.046a.625.625 0 0 1-.566-1.082c.623-.524.965-1.314.986-2.204v-.087c0-.653-.398-1.4-1.12-2.264-.596-.71-1.327-1.407-2.058-2.116-.736.706-1.46 1.368-2.057 2.068-.714.835-1.118 1.586-1.118 2.312l.001.087c.02.89.363 1.68.985 2.204a.625.625 0 0 1-.565 1.082c-3.48-.94-6.233-3.664-6.233-7.08 0-2.763 1.228-4.492 2.637-6.168 1.411-1.677 2.989-3.294 4.05-5.953l.013-.032a.625.625 0 0 1 .905-.261c1.008.649 1.528 1.56 1.856 2.492.163.46.281.935.387 1.388.108.464.2.893.317 1.313l.012.039c.038.109.142.349.345.565.215.23.547.444 1.09.444.504 0 .81-.162 1.005-.332.208-.18.325-.402.386-.55l.01-.025c.047-.13.095-.37.148-.656.024-.129.052-.276.08-.386.012-.044.037-.14.085-.23.016-.03.088-.169.249-.264a.637.637 0 0 1 .714.044l.029.023.001.001.06.054c.488.445 3.599 3.476 3.599 8.495Z"/>
  <defs>
    <linearGradient id="Fire-Color-24_svg__a" x1="12.089" x2="13.856" y1="6.298" y2="19.425" gradientUnits="userSpaceOnUse">
      <stop stop-color="#FA8B38"/>
      <stop offset=".52" stop-color="#E72A57"/>
      <stop offset="1" stop-color="#CC165B"/>
    </linearGradient>
    <linearGradient id="Fire-Color-24_svg__b" x1="12" x2="12" y1="2" y2="21.615" gradientUnits="userSpaceOnUse">
      <stop stop-color="#DE5833"/>
      <stop offset="1" stop-color="#9A3216"/>
    </linearGradient>
  </defs>
</svg>
